svgs/sharp-solid/air-conditioner.svg

<svg xmlns="http://www.w3.org/2000/svg" viewBox="0 0 576 512"><!--! Font Awesome Pro 6.6.0 by @fontawesome - https://fontawesome.com License - https://fontawesome.com/license (Commercial License) Copyright 2024 Fonticons, Inc. --><path d="M576 0L0 0 0 224l576 0L576 0zM80 128l416 0 16 0 0 32-16 0L80 160l-16 0 0-32 16 0zM256 256l-64 0 0 160c0 17.7-14.3 32-32 32s-32-14.3-32-32c0-11.8 6.4-22.2 16-27.7l-32-55.4C83.4 349.4 64 380.4 64 416c0 53 43 96 96 96s96-43 96-96l0-160zm64 128c0 53 43 96 96 96s96-43 96-96c0-35.6-19.4-66.6-48-83.1l-32 55.4c9.6 5.6 16 15.9 16 27.7c0 17.7-14.3 32-32 32s-32-14.3-32-32l0-128-64 0 0 128z"/></svg>

<svg xmlns="http://www.w3.org/2000/svg" viewBox="0 0 576 512"><!--! Font Awesome Pro 6.4.0 by @fontawesome - https://fontawesome.com License - https://fontawesome.com/license (Commercial License) Copyright 2023 Fonticons, Inc. --><path d="M576 0H0V224H576V0zM80 128H496h16v32H496 80 64V128H80zM256 256H192V416c0 17.7-14.3 32-32 32s-32-14.3-32-32c0-11.8 6.4-22.2 16-27.7l-32-55.4C83.4 349.4 64 380.4 64 416c0 53 43 96 96 96s96-43 96-96V256zm64 128c0 53 43 96 96 96s96-43 96-96c0-35.6-19.4-66.6-48-83.1l-32 55.4c9.6 5.6 16 15.9 16 27.7c0 17.7-14.3 32-32 32s-32-14.3-32-32V256H320V384z"/></svg>
